layouts/icon-pack/spell_freeze.svg

<?xml version="1.0" encoding="UTF-8"?>
<svg width="1200pt" height="1200pt" version="1.1" viewBox="0 0 1200 1200" xmlns="http://www.w3.org/2000/svg">
 <g fill="#fff">
  <path d="m87.305 778.24 124.01 275.34c2.0391 4.5156 6.75 7.207 11.676 6.6758 4.9258-0.53516 8.9531-4.1719 9.9805-9.0195l40.172-182.93c1.0703-4.9219-1.1914-9.9688-5.5781-12.445l-164.06-92.414c-4.3398-2.5742-9.8516-2.0117-13.578 1.3906s-4.7891 8.8438-2.6172 13.398z"/>
  <path d="m853.43 750h155.98c3.7188-0.003906 7.2734-1.5508 9.8047-4.2773 2.5352-2.7227 3.8203-6.3789 3.5547-10.09l-27-373.45c-0.37891-5.1094-3.6406-9.5586-8.4023-11.457-4.7578-1.8984-10.188-0.91797-13.98 2.5273l-216.07 196.34c-4.4141 4.0156-5.6406 10.469-3 15.82l87.094 177.16c2.2695 4.5586 6.9297 7.4375 12.023 7.4297z"/>
  <path d="m698.44 539.18 121.24-103.59c8.8867-7.5938 15.402-17.586 18.77-28.781 3.3672-11.195 3.4414-23.121 0.21484-34.359l-60.938-212.67c-1.0938-3.8203-3.7148-7.0234-7.25-8.8438-3.5312-1.8242-7.6602-2.1055-11.41-0.78125-3.7461 1.3242-6.7812 4.1367-8.3867 7.7734l-92.414 209.09c-4.7656 10.809-6.2969 22.77-4.4062 34.43l21.094 129.09c0.5625 3.3555 2.2969 6.4023 4.8906 8.6055 2.5977 2.1992 5.8867 3.4102 9.2891 3.418 3.4023 0.007812 6.6992-1.1875 9.3047-3.375z"/>
  <path d="m306.3 672.07 16.406-101.53c1.0938-6.8164 1.5039-13.727 1.2188-20.625l-13.875-334.48c-0.23047-5.3516-4.2578-9.7734-9.5625-10.504-5.3086-0.73047-10.379 2.4375-12.047 7.5273-40.031 123.96-90.305 269.67-116.39 344.53-1.5508 4.4531-1.7383 9.2695-0.53516 13.828 1.2031 4.5586 3.7383 8.6562 7.2852 11.766l109.24 96.094c3.0391 2.6641 7.2812 3.4609 11.082 2.0859 3.7969-1.375 6.5469-4.707 7.1758-8.6953z"/>
  <path d="m451.52 1003.9-89.625-30.352c-3.8906-1.4102-8.2461-0.097656-10.715 3.2227-2.4688 3.3242-2.4688 7.8711 0.003906 11.191l84.75 119.11c1.7578 2.5039 4.6289 3.9883 7.6875 3.9844h48c3.2656 0.035157 6.3164-1.6328 8.0508-4.4062 1.7305-2.7695 1.8945-6.2422 0.43359-9.1641l-43.078-88.758c-1.1055-2.2891-3.0938-4.0312-5.5078-4.8281z"/>
  <path d="m840.49 803.23-161.93 288.28c-2.2617 4.0312-2.2188 8.9609 0.11328 12.953 2.3359 3.9883 6.6094 6.4453 11.23 6.4531h36.984c3.6992 0.003907 7.2227-1.5742 9.6797-4.3359l237.14-264.07c0.29297-0.32031 0.56641-0.65625 0.82031-1.0078l17.719-24.211c2.8906-3.957 3.3164-9.207 1.1016-13.578-2.2148-4.375-6.6992-7.1328-11.602-7.1406h-129.91c-4.707-0.003906-9.0508 2.543-11.344 6.6562z"/>
  <path d="m506.25 1003.4 50.039 103.12c1.3594 2.7773 4.1758 4.5391 7.2656 4.5469h24.023c2.2344 0 4.3672-0.92969 5.8867-2.5664 1.5195-1.6367 2.293-3.832 2.1289-6.0586l-17.859-260.3c-0.23438-3.707-2.9766-6.7734-6.6367-7.4141s-7.2812 1.3086-8.7617 4.7188l-56.719 128.44c-5 11.359-4.7656 24.336 0.63281 35.508z"/>
  <path d="m289.08 741.45-106.41-93.469c-3.9727-3.5039-9.707-4.1641-14.371-1.6523-4.6641 2.5078-7.2695 7.6562-6.5352 12.902l11.719 84.703c0.51172 3.9492 2.8555 7.4258 6.3281 9.375l88.055 49.57c3.6094 2.0508 7.9961 2.1992 11.738 0.39844 3.7422-1.8008 6.3633-5.3203 7.0117-9.4219l6.6094-40.781c0.71094-4.332-0.85547-8.7227-4.1484-11.625z"/>
  <path d="m288.68 1014.5-18.023 82.148c-0.82031 3.5078 0.015625 7.1992 2.2734 10.008 2.2539 2.8125 5.6797 4.4258 9.2812 4.3828h76.383c4.4492 0.019532 8.5352-2.4609 10.574-6.418 2.0352-3.957 1.6836-8.7188-0.91797-12.332l-58.359-82.102c-2.7109-3.8203-7.418-5.6797-12.008-4.7461-4.5898 0.93359-8.1992 4.4844-9.2031 9.0586z"/>
  <path d="m324.33 852.02v0.51562c0 0.1875 0 0.49219-0.11719 0.75l-9.0938 41.391c-0.78125 3.5352-0.23047 7.2305 1.5469 10.387 1.7812 3.1523 4.6562 5.5391 8.0859 6.6992l121.88 41.273c3.4766 1.1836 7.2734 1.0195 10.637-0.46094 3.3633-1.4766 6.0508-4.168 7.5273-7.5312l73.523-166.41c1.2227-2.7734 1.5586-5.8555 0.96484-8.8242-0.59766-2.9688-2.0938-5.6836-4.293-7.7695l-149.65-142.45c-2.5977-2.4766-6.0117-3.918-9.6016-4.0508-3.5859-0.13281-7.0977 1.0508-9.8711 3.3281-2.7734 2.2812-4.6172 5.4961-5.1836 9.043z"/>
  <path d="m696.28 604.2-74.25 185.91c-0.75391 1.8984-1.0742 3.9375-0.9375 5.9766l15.398 224.48c0.40234 5.9961 4.6953 11.012 10.559 12.332 5.8594 1.3203 11.891-1.3711 14.824-6.6133l138.96-247.45c2.1836-3.8984 2.3125-8.6211 0.35156-12.633l-80.133-162.96c-1.8477-3.7578-5.3281-6.4492-9.4297-7.2969-4.0977-0.84766-8.3594 0.24609-11.547 2.9609-1.6797 1.4297-2.9805 3.25-3.7969 5.2969z"/>
  <path d="m1105 872.74-75.891-2.3438c-10.992-0.35156-21.574 4.168-28.922 12.352l-185.37 206.48c-3.4492 3.8477-4.3125 9.3633-2.207 14.082 2.1094 4.7188 6.7891 7.7578 11.957 7.7617h45.328c1.7305-0.003906 3.4414-0.34766 5.0391-1.0078l154.1-64.078c15.508-6.4375 27.758-18.871 33.961-34.477l50.133-126.35c1.1055-2.7461 0.79687-5.8594-0.82422-8.3359-1.6211-2.4727-4.3516-4-7.3086-4.0859z"/>
  <path d="m594.16 734.48 39.844-99.82c4.9102-12.289 6.3867-25.68 4.2656-38.742l-30.469-187.29c-1.9648-12.141-6.9805-23.586-14.578-33.258l-221.23-282.38c-2.7891-3.5273-7.5312-4.8633-11.75-3.3125-4.2227 1.5508-6.9688 5.6367-6.8125 10.133l16.078 424.62c0.38281 10.562 4.875 20.562 12.516 27.867l195.23 185.84c2.4961 2.4102 6.0312 3.4141 9.4258 2.6797 3.3906-0.73437 6.1953-3.1094 7.4727-6.3359z"/>
  <path d="m627.77 320.7 73.125-165.49c1.8125-4.1367 0.55078-8.9766-3.0469-11.707-3.5977-2.7266-8.5977-2.6367-12.094 0.22266l-123.12 101.7c-4.082 3.3711-4.7266 9.3867-1.4531 13.547l49.945 63.82c2.1172 2.707 5.5 4.1016 8.9102 3.6719 3.4102-0.42578 6.3438-2.6133 7.7305-5.7578z"/>
 </g>
</svg>

<?xml version="1.0" encoding="UTF-8" standalone="no"?>
<!DOCTYPE svg PUBLIC "-//W3C//DTD SVG 1.1//EN" "http://www.w3.org/Graphics/SVG/1.1/DTD/svg11.dtd">
<svg width="100%" height="100%" viewBox="0 0 512 510" version="1.1" xmlns="http://www.w3.org/2000/svg" xmlns:xlink="http://www.w3.org/1999/xlink" xml:space="preserve" xmlns:serif="http://www.serif.com/" style="fill-rule:evenodd;clip-rule:evenodd;stroke-linejoin:round;stroke-miterlimit:2;">
    <g transform="matrix(1,0,0,1,-86.1938,-89.0385)">
        <g transform="matrix(0.498254,0,0,0.498254,43.2474,44.6747)">
            <path d="M87.305,778.24L211.315,1053.58C213.354,1058.1 218.065,1060.79 222.991,1060.26C227.917,1059.72 231.944,1056.08 232.972,1051.24L273.144,868.306C274.214,863.384 271.952,858.337 267.565,855.861L103.505,763.447C99.166,760.873 93.654,761.436 89.927,764.838C86.201,768.24 85.138,773.682 87.31,778.236L87.305,778.24Z" style="fill:white;fill-rule:nonzero;"/>
            <path d="M853.43,750L1009.41,750C1013.13,749.996 1016.68,748.449 1019.22,745.723C1021.75,743 1023.03,739.344 1022.77,735.633L995.769,362.183C995.39,357.073 992.129,352.624 987.367,350.726C982.609,348.827 977.179,349.808 973.387,353.253L757.317,549.593C752.903,553.609 751.677,560.062 754.317,565.413L841.411,742.573C843.681,747.132 848.341,750.011 853.434,750.003L853.43,750Z" style="fill:white;fill-rule:nonzero;"/>
            <path d="M698.44,539.18L819.68,435.59C828.567,427.996 835.082,418.004 838.45,406.809C841.817,395.614 841.891,383.688 838.665,372.45L777.727,159.78C776.633,155.96 774.012,152.757 770.477,150.936C766.946,149.112 762.817,148.831 759.067,150.155C755.321,151.479 752.286,154.292 750.68,157.928L658.266,367.018C653.501,377.827 651.969,389.788 653.86,401.448L674.954,530.538C675.516,533.894 677.251,536.941 679.845,539.144C682.442,541.343 685.731,542.554 689.134,542.562C692.536,542.57 695.833,541.374 698.438,539.187L698.44,539.18Z" style="fill:white;fill-rule:nonzero;"/>
            <path d="M306.3,672.07L322.706,570.54C323.8,563.724 324.21,556.813 323.925,549.915L310.05,215.435C309.819,210.083 305.792,205.662 300.487,204.931C295.179,204.201 290.108,207.369 288.44,212.458C248.409,336.418 198.135,482.128 172.05,556.988C170.499,561.441 170.312,566.258 171.515,570.816C172.718,575.375 175.253,579.473 178.8,582.582L288.04,678.676C291.079,681.34 295.322,682.137 299.122,680.762C302.919,679.387 305.669,676.055 306.298,672.067L306.3,672.07Z" style="fill:white;fill-rule:nonzero;"/>
            <path d="M451.52,1003.9L361.895,973.548C358.004,972.138 353.649,973.45 351.18,976.771C348.711,980.095 348.711,984.642 351.184,987.962L435.934,1107.07C437.692,1109.58 440.563,1111.06 443.621,1111.06L491.621,1111.06C494.887,1111.09 497.938,1109.42 499.672,1106.65C501.403,1103.88 501.567,1100.41 500.106,1097.49L457.028,1008.73C455.922,1006.44 453.934,1004.7 451.52,1003.9L451.52,1003.9Z" style="fill:white;fill-rule:nonzero;"/>
            <path d="M840.49,803.23L678.56,1091.51C676.298,1095.54 676.341,1100.47 678.673,1104.46C681.009,1108.45 685.283,1110.91 689.903,1110.92L726.887,1110.92C730.586,1110.92 734.11,1109.34 736.567,1106.58L973.707,842.51C974,842.19 974.273,841.854 974.527,841.502L992.246,817.291C995.137,813.334 995.563,808.084 993.348,803.713C991.133,799.338 986.649,796.581 981.746,796.573L851.836,796.573C847.129,796.569 842.785,799.116 840.492,803.229L840.49,803.23Z" style="fill:white;fill-rule:nonzero;"/>
            <path d="M506.25,1003.4L556.289,1106.52C557.648,1109.3 560.465,1111.06 563.555,1111.07L587.578,1111.07C589.812,1111.07 591.945,1110.14 593.464,1108.5C594.984,1106.86 595.757,1104.67 595.593,1102.44L577.734,842.142C577.5,838.435 574.758,835.369 571.098,834.728C567.437,834.087 563.816,836.036 562.336,839.447L505.617,967.887C500.617,979.246 500.851,992.223 506.25,1003.39L506.25,1003.4Z" style="fill:white;fill-rule:nonzero;"/>
            <path d="M289.08,741.45L182.67,647.981C178.697,644.477 172.963,643.817 168.299,646.329C163.635,648.837 161.029,653.985 161.764,659.231L173.483,743.934C173.995,747.883 176.338,751.36 179.811,753.309L267.866,802.879C271.475,804.93 275.862,805.078 279.604,803.277C283.346,801.476 285.967,797.957 286.616,793.855L293.225,753.074C293.936,748.742 292.37,744.352 289.077,741.449L289.08,741.45Z" style="fill:white;fill-rule:nonzero;"/>
            <path d="M288.68,1014.5L270.657,1096.65C269.837,1100.16 270.673,1103.85 272.93,1106.66C275.184,1109.47 278.61,1111.08 282.212,1111.04L358.595,1111.04C363.044,1111.06 367.13,1108.58 369.169,1104.62C371.204,1100.66 370.852,1095.9 368.251,1092.29L309.892,1010.19C307.181,1006.37 302.474,1004.51 297.884,1005.44C293.294,1006.37 289.684,1009.93 288.681,1014.5L288.68,1014.5Z" style="fill:white;fill-rule:nonzero;"/>
            <path d="M324.33,852.02L324.33,852.536C324.33,852.723 324.33,853.028 324.213,853.286L315.119,894.677C314.338,898.212 314.889,901.907 316.666,905.064C318.447,908.216 321.322,910.603 324.752,911.763L446.632,953.036C450.108,954.219 453.905,954.055 457.269,952.575C460.632,951.098 463.32,948.407 464.796,945.044L538.319,778.634C539.542,775.86 539.878,772.778 539.284,769.809C538.686,766.841 537.19,764.126 534.991,762.04L385.341,619.59C382.743,617.113 379.329,615.672 375.739,615.539C372.153,615.406 368.642,616.59 365.868,618.867C363.095,621.148 361.251,624.363 360.685,627.91L324.33,852.02Z" style="fill:white;fill-rule:nonzero;"/>
            <path d="M696.28,604.2L622.03,790.11C621.276,792.008 620.956,794.048 621.093,796.087L636.491,1020.57C636.893,1026.56 641.186,1031.58 647.05,1032.9C652.909,1034.22 658.94,1031.53 661.873,1026.29L800.833,778.835C803.017,774.937 803.146,770.214 801.185,766.202L721.052,603.242C719.204,599.484 715.724,596.793 711.622,595.945C707.525,595.098 703.263,596.191 700.075,598.906C698.396,600.336 697.095,602.156 696.278,604.203L696.28,604.2Z" style="fill:white;fill-rule:nonzero;"/>
            <path d="M1105,872.74L1029.11,870.396C1018.12,870.045 1007.53,874.564 1000.19,882.748L814.817,1089.23C811.368,1093.08 810.504,1098.59 812.61,1103.31C814.719,1108.03 819.399,1111.07 824.567,1111.07L869.895,1111.07C871.625,1111.07 873.336,1110.72 874.934,1110.06L1029.03,1045.99C1044.54,1039.55 1056.79,1027.12 1063,1011.51L1113.13,885.159C1114.23,882.413 1113.92,879.3 1112.3,876.823C1110.68,874.351 1107.95,872.823 1105,872.737L1105,872.74Z" style="fill:white;fill-rule:nonzero;"/>
            <path d="M594.16,734.48L634.004,634.66C638.914,622.371 640.391,608.98 638.27,595.918L607.801,408.628C605.836,396.487 600.82,385.042 593.223,375.37L371.993,92.99C369.203,89.463 364.461,88.127 360.243,89.678C356.02,91.228 353.274,95.314 353.43,99.811L369.508,524.431C369.891,534.993 374.383,544.993 382.024,552.298L577.254,738.138C579.75,740.548 583.285,741.552 586.68,740.817C590.07,740.083 592.875,737.708 594.153,734.481L594.16,734.48Z" style="fill:white;fill-rule:nonzero;"/>
            <path d="M627.77,320.7L700.895,155.21C702.708,151.073 701.446,146.233 697.848,143.503C694.25,140.776 689.25,140.866 685.754,143.726L562.634,245.426C558.552,248.797 557.907,254.812 561.181,258.973L611.126,322.793C613.243,325.5 616.626,326.894 620.036,326.465C623.446,326.039 626.38,323.851 627.767,320.707L627.77,320.7Z" style="fill:white;fill-rule:nonzero;"/>
        </g>
    </g>
</svg>
